X:3926
L:1/8
M:2/4
K:G
 (d/e/f/g/) ad | gc e2 | fdad | fgad' | fdad | gc e2 | dd'ag | Tf2 ef :: dd'ab | c'c e2 | dd'ab | 
 c'd'e'd' | d'bac' | ec e2 | dd'ag | Tf2 ef :|

